a/assets/inline-svg/app-colored-icons/color-problem.svg

<svg width="14" height="14" viewBox="0 0 14 14" fill="none" xmlns="http://www.w3.org/2000/svg">
<path fill-rule="evenodd" clip-rule="evenodd" d="M13.0583 9.9852L12.4415 9.39426C12.0023 8.96475 11.208 8.64186 10.5912 8.64186H10.3108V7.85596H10.5912C10.912 7.85596 11.4135 8.06005 11.6441 8.28242L12.2484 8.87337L12.2515 8.87641C12.3605 8.97694 12.5038 9.03177 12.6533 9.02872C12.8029 9.02567 12.943 8.96475 13.0489 8.85814C13.2577 8.64491 13.2577 8.30983 13.0489 8.09356L12.4415 7.50566C12.0023 7.07615 11.208 6.75326 10.5912 6.75326H10.3108V5.96736H10.5912C10.912 5.96736 11.4135 6.17145 11.6441 6.39382L12.2453 6.98477C12.3449 7.08529 12.4882 7.14317 12.6378 7.14317H12.644C12.7935 7.14317 12.9399 7.08529 13.0458 6.98782L13.0489 6.98477C13.267 6.76545 13.267 6.42428 13.0458 6.20496L12.4415 5.61401C12.0023 5.18451 11.208 4.86162 10.5912 4.86162H10.2859C10.2018 4.12446 9.88406 3.43299 9.37319 2.87554L9.55698 2.69582C9.98997 2.26936 10.3046 1.61445 10.3046 1.1423V0.551349C10.3046 0.246736 10.0523 0 9.74076 0C9.42926 0 9.17694 0.246736 9.17694 0.551349V1.1423C9.17694 1.27024 9.01807 1.66014 8.75641 1.91906L8.49786 2.17189C7.34529 1.50174 5.85318 1.50174 4.70061 2.17189L4.44206 1.91906C4.1804 1.66623 4.02153 1.27328 4.02153 1.14534V0.551349C4.02153 0.405135 3.96234 0.265013 3.85643 0.161445C3.75052 0.0578764 3.60723 0 3.45771 0C3.30818 0 3.16489 0.0578764 3.05898 0.161445C2.95307 0.265013 2.89388 0.405135 2.89388 0.551349V1.1423C2.89388 1.61749 3.2085 2.26936 3.64461 2.69582L3.8284 2.87554C3.31753 3.43299 3.00291 4.12141 2.91569 4.86162H2.61664C1.99986 4.86162 1.20552 5.18451 0.769418 5.61401L0.165098 6.20496C0.059186 6.30853 0 6.4456 0 6.59182C0 6.73803 0.0560709 6.87511 0.161983 6.97868L0.165098 6.98172C0.386266 7.19191 0.735152 7.19191 0.959436 6.98172L1.56687 6.38773C1.79738 6.16231 2.29579 5.96127 2.61976 5.96127H2.90011V6.74717H2.61976C2.00298 6.74717 1.20864 7.07006 0.772533 7.49957L0.168213 8.09356C0.062301 8.19408 0 8.33725 0 8.48346C0 8.62968 0.059186 8.77285 0.168213 8.87641C0.389381 9.08355 0.738267 9.08355 0.959436 8.87641L1.56999 8.28242C1.8005 8.05701 2.29891 7.85596 2.62287 7.85596H2.90323V8.64186H2.62287C2.00609 8.64186 1.21175 8.96475 0.775648 9.39426L0.171328 9.98216C0.0654161 10.0857 0.0062301 10.2228 0.0062301 10.3721C0.0062301 10.5213 0.0654161 10.6584 0.168213 10.7589L0.174443 10.765C0.395611 10.9721 0.744497 10.9721 0.965666 10.765L1.5731 10.171C1.80361 9.94561 2.30202 9.74456 2.62599 9.74456H2.99045C3.18358 10.4726 3.73806 11.3407 4.64143 12.3277C5.35327 13.103 6.05973 13.7048 6.22148 13.8426L6.24879 13.866C6.3547 13.9543 6.48554 14 6.61637 14C6.7472 14 6.87803 13.9574 6.98083 13.869C7.27053 13.6284 9.77192 11.5144 10.2423 9.74761H10.6036C10.9245 9.74761 11.426 9.9517 11.6565 10.1741L12.2608 10.765L12.264 10.7681C12.4851 10.9691 12.834 10.9691 13.0552 10.7681L13.0614 10.762C13.2763 10.5457 13.2763 10.2045 13.0583 9.9852ZM4.08424 4.72503C4.1995 4.23765 4.46117 3.78986 4.83497 3.44565L4.9658 3.32076L5.12156 3.21414C5.99066 2.61405 7.20552 2.61405 8.07774 3.21719L8.22103 3.31162L8.36432 3.44565C8.73813 3.78986 9.00291 4.23765 9.11505 4.72808H4.08424V4.72503ZM9.1836 9.22701V5.96458H4.02819L4.04065 9.33057C4.10918 9.77531 4.46118 10.3906 5.05616 11.1126C5.62933 11.8101 6.27103 12.4133 6.60434 12.7118C7.53574 11.8772 9.02473 10.3175 9.16803 9.32144L9.1836 9.22701Z" fill="#2C5CC5"/>
</svg>

<svg xmlns="http://www.w3.org/2000/svg" width="14" height="14" fill="none"><g clip-path="url(#color-problem __a)"><path fill="#2C5CC5" fill-rule="evenodd" d="M13.058 9.985l-.617-.59c-.439-.43-1.233-.753-1.85-.753h-.28v-.786h.28c.321 0 .823.204 1.053.426l.604.591.004.003a.574.574 0 00.797-.018.545.545 0 000-.764l-.607-.588c-.44-.43-1.234-.753-1.85-.753h-.281v-.786h.28c.321 0 .823.204 1.053.427l.601.59c.1.101.243.16.393.16h.006a.6.6 0 00.402-.156l.003-.003a.544.544 0 00-.003-.78l-.604-.591c-.44-.43-1.234-.752-1.85-.752h-.306a3.528 3.528 0 00-.913-1.986l.184-.18c.433-.427.748-1.082.748-1.554v-.59A.558.558 0 009.74 0a.558.558 0 00-.564.551v.591c0 .128-.159.518-.42.777l-.26.253a3.837 3.837 0 00-3.796 0l-.259-.253c-.262-.253-.42-.646-.42-.774V.551a.545.545 0 00-.166-.39.57.57 0 00-.797 0 .545.545 0 00-.165.39v.591c0 .475.314 1.127.75 1.554l.184.18a3.539 3.539 0 00-.912 1.986h-.3c-.616 0-1.41.323-1.847.752l-.604.591a.538.538 0 00-.003.774l.003.003c.221.21.57.21.794 0l.608-.594c.23-.226.729-.427 1.053-.427h.28v.786h-.28c-.617 0-1.411.323-1.847.753l-.605.594a.543.543 0 000 .782.58.58 0 00.791 0l.611-.594c.23-.225.729-.426 1.053-.426h.28v.786h-.28c-.617 0-1.411.323-1.847.752l-.605.588a.54.54 0 00-.003.777l.006.006c.222.207.57.207.792 0l.607-.594c.23-.225.729-.426 1.053-.426h.364c.194.728.748 1.596 1.651 2.583.712.775 1.419 1.377 1.58 1.515l.028.023a.575.575 0 00.732.003c.29-.24 2.79-2.355 3.261-4.121h.362c.32 0 .822.204 1.053.426l.604.591.003.003c.221.201.57.201.791 0l.006-.006a.546.546 0 00-.003-.777zm-8.974-5.26c.115-.487.377-.935.751-1.28l.13-.124.157-.107c.869-.6 2.084-.6 2.956.003l.143.095.143.134c.374.344.639.792.751 1.282h-5.03v-.003zm5.1 4.502V5.965H4.028l.013 3.366c.068.444.42 1.06 1.015 1.782.573.697 1.215 1.3 1.548 1.599.932-.835 2.42-2.394 2.564-3.39l.016-.095z" clip-rule="evenodd"/></g><defs><clipPath id="color-problem __a"><path fill="#fff" d="M0 0h14v14H0z"/></clipPath></defs></svg>
